dist/svgs/unicons/line/border-alt.svg

<svg xmlns="http://www.w3.org/2000/svg" viewBox="0 0 24 24"><path d="M11.5,18.5a1,1,0,1,0,1,1A1,1,0,0,0,11.5,18.5Zm9-15a1,1,0,0,0-1-1H3.5a1,1,0,0,0-1,1v16a1,1,0,0,0,2,0V4.5h15A1,1,0,0,0,20.5,3.5Zm-5,15a1,1,0,1,0,1,1A1,1,0,0,0,15.5,18.5Zm-8,0a1,1,0,1,0,1,1A1,1,0,0,0,7.5,18.5Zm12-12a1,1,0,1,0,1,1A1,1,0,0,0,19.5,6.5Zm0,4a1,1,0,1,0,1,1A1,1,0,0,0,19.5,10.5Zm0,4a1,1,0,1,0,1,1A1,1,0,0,0,19.5,14.5Zm0,4a1,1,0,1,0,1,1A1,1,0,0,0,19.5,18.5Z"/></svg>

<svg xmlns="http://www.w3.org/2000/svg" viewBox="0 0 24 24"><path d="M11.5 18.5a1 1 0 101 1 1 1 0 00-1-1zm9-15a1 1 0 00-1-1h-16a1 1 0 00-1 1v16a1 1 0 002 0v-15h15a1 1 0 001-1zm-5 15a1 1 0 101 1 1 1 0 00-1-1zm-8 0a1 1 0 101 1 1 1 0 00-1-1zm12-12a1 1 0 101 1 1 1 0 00-1-1zm0 4a1 1 0 101 1 1 1 0 00-1-1zm0 4a1 1 0 101 1 1 1 0 00-1-1zm0 4a1 1 0 101 1 1 1 0 00-1-1z"/></svg>
